X: 1
T: Leitrim Bucks, The
M: 4/4
L: 1/8
R: reel
K: Dmaj
A2 AB ADFD | A2 FA BcdB | A2 FA ADFD | EFGA BE E2 :|
dcBA d2 Bc | d2 cA BE E2 | dcBA BAGF |1 EFGA BE E2 :|2 EFGA Bcdf||
fa a2 afdf | a2 fd eB B2 | fa a2 afef |1 defd eB B2 :|2 defd e2 de||
f3 e f2 de | f2 df eB B2 | f3 d e2 fe | defd eB B2 | 
f3 e f3 e | f2 df eB B2 | f3 d e2 fe | defd efdB |
